svg/Pictogram/pictograms-nps-services-mechanic.svg

<svg xmlns="http://www.w3.org/2000/svg" width="123.55" height="123.54" viewBox="-0.258 -0.548 123.547 123.539" enable-background="new -0.258 -0.548 123.547 123.539"><path d="m108.95 122.9c8.156 0 14.773-6.617 14.773-14.773v-94.01c0-8.156-6.617-14.773-14.773-14.773h-94.02c-8.156 0-14.75 6.617-14.75 14.773v94.01c0 8.156 6.594 14.773 14.75 14.773h94.02"/><path d="m14.93 1.848c-6.75 0-12.242 5.5-12.242 12.273v94.01c0 6.773 5.492 12.281 12.242 12.281h94.02c6.766 0 12.258-5.508 12.258-12.281v-94.01c0-6.773-5.492-12.273-12.258-12.273h-94.02"/><path d="m82.56 36.559l-9.03-7.03v-14.485c-3.688 1.859-10.05 7.938-8.383 16.438.172 2.508 2.133 8.953 1.297 12.469-1.125 4.688-1.539 4.789-8.281 13.188l-33.789 41.2c-2.266 2.562-2.023 6.492.539 8.766s6.469 2.023 8.742-.539l42.29-51.945c2.664-3.32 7.57-6.25 11.82-7.398 7.297-2.219 12.688-8.984 12.688-17.02 0-6.469-3.734-12.594-8.641-15.16l-.023 14.258-9.227 7.257" fill="#fff"/></svg>

<?xml version="1.0" encoding="iso-8859-1"?>
<!-- Generator: Adobe Illustrator 13.0.2, SVG Export Plug-In . SVG Version: 6.00 Build 14948)  -->
<!DOCTYPE svg PUBLIC "-//W3C//DTD SVG 1.1//EN" "http://www.w3.org/Graphics/SVG/1.1/DTD/svg11.dtd">
<svg version="1.1" id="Layer_1" xmlns="http://www.w3.org/2000/svg" xmlns:xlink="http://www.w3.org/1999/xlink" x="0px" y="0px"
	 width="123.547px" height="123.539px" viewBox="-0.258 -0.548 123.547 123.539"
	 style="enable-background:new -0.258 -0.548 123.547 123.539;" xml:space="preserve">
<g>
	<path d="M108.953,122.902c8.156,0,14.773-6.617,14.773-14.773V14.121c0-8.156-6.617-14.773-14.773-14.773H14.93
		c-8.156,0-14.75,6.617-14.75,14.773v94.008c0,8.156,6.594,14.773,14.75,14.773H108.953z"/>
	<path d="M14.93,1.848c-6.75,0-12.242,5.5-12.242,12.273v94.008c0,6.773,5.492,12.281,12.242,12.281h94.023
		c6.766,0,12.258-5.508,12.258-12.281V14.121c0-6.773-5.492-12.273-12.258-12.273H14.93z"/>
	<path style="fill:#FFFFFF;" d="M82.562,36.559l-9.031-7.031V15.043c-3.688,1.859-10.047,7.938-8.383,16.438
		c0.172,2.508,2.133,8.953,1.297,12.469c-1.125,4.688-1.539,4.789-8.281,13.188L24.375,98.34c-2.266,2.562-2.023,6.492,0.539,8.766
		s6.469,2.023,8.742-0.539l42.289-51.945c2.664-3.32,7.57-6.25,11.82-7.398c7.297-2.219,12.688-8.984,12.688-17.016
		c0-6.469-3.734-12.594-8.641-15.164l-0.023,14.258L82.562,36.559z"/>
</g>
</svg>
